svgs/sharp-light/people-simple.svg

<svg xmlns="http://www.w3.org/2000/svg" viewBox="0 0 512 512"><!--! Font Awesome Pro 6.6.0 by @fontawesome - https://fontawesome.com License - https://fontawesome.com/license (Commercial License) Copyright 2024 Fonticons, Inc. --><path d="M160 64A32 32 0 1 0 96 64a32 32 0 1 0 64 0zM64 64a64 64 0 1 1 128 0A64 64 0 1 1 64 64zM57.4 320l6.6 0 32 0 64 0 32 0 6.6 0-5.3-128L62.7 192 57.4 320zM200 352l-8 0 0 144 0 16-32 0 0-16 0-144-64 0 0 144 0 16-32 0 0-16 0-144-8 0-32 0 1.3-32L32 160l192 0 6.7 160 1.3 32-32 0zM416 64a32 32 0 1 0 -64 0 32 32 0 1 0 64 0zm-96 0a64 64 0 1 1 128 0A64 64 0 1 1 320 64zM298.4 352l171.2 0L423.9 192l-79.7 0L298.4 352zM320 160l128 0 54.9 192 9.1 32-33.3 0L448 384l0 112 0 16-32 0 0-16 0-112-64 0 0 112 0 16-32 0 0-16 0-112-30.7 0L256 384l9.1-32L320 160z"/></svg>

<svg xmlns="http://www.w3.org/2000/svg" viewBox="0 0 512 512"><!--! Font Awesome Pro 6.4.0 by @fontawesome - https://fontawesome.com License - https://fontawesome.com/license (Commercial License) Copyright 2023 Fonticons, Inc. --><path d="M160 64A32 32 0 1 0 96 64a32 32 0 1 0 64 0zM64 64a64 64 0 1 1 128 0A64 64 0 1 1 64 64zM57.4 320H64 96h64 32 6.6l-5.3-128H62.7L57.4 320zM200 352h-8V496v16H160V496 352H96V496v16H64V496 352H56 24l1.3-32L32 160H224l6.7 160 1.3 32H200zM416 64a32 32 0 1 0 -64 0 32 32 0 1 0 64 0zm-96 0a64 64 0 1 1 128 0A64 64 0 1 1 320 64zM298.4 352H469.6L423.9 192H344.1L298.4 352zM320 160H448l54.9 192 9.1 32H478.7 448V496v16H416V496 384H352V496v16H320V496 384H289.3 256l9.1-32L320 160z"/></svg>
